!!!COM: Jules Massenet
!!!CNT: Francais
!!!TXO: Francais
!!!OTL: Le Bois de Pins
!!!LYR: Camille Distel
!!!ENC: Jacob Pegg
!!!YOR: Romantic French Song 1830-1870 - David Tunley, ed.,
!!!YOR: New York: Garland Publishing, Inc., 1995, Vol. 6
!!!ODT: 1868/
!!NB: Vocal melody and text only encoded.
!!NB: First instance of melodic material only encoded.
**kern	**silbe
*clef G2	*
*k[b-e-a-d-]	*
*M3/4	*
!!created: 12/20/03 18:57
!!proofed and posted: 1/22/04 0:30
!!edit time: 34 min.
=1	=1
4r	.
8r	.
{8cc	{L’om-
8b-	-bre
8a-	des-
=2	=2
4.b-	-cend
8b-	de
8a-	leurs
8g	ra-
=3	=3
4.a-}	-meaux,}
{8a-	{Tie\-
8g	-de,
8f	le/-
=4	=4
8e-	-ge\-
8e-	-re,
4ee-	par-
4ee-	-fu-
=5	=5
4ee-	-me/-
4cc}	-e,}
8r	.
8r	.
!! melody repeats 6-10, twice again 13-21
=22	=22
{(4g	{Oh!
4b-)	|
4b-	ma
=23	=23
(8b-	blon-
8ee-)	|
8ee-	-de
8ee-	pe-
8ddn	-ti-
8cc	-te
=24	=24
4.ddn}	soeur,}
{8ddn	{Sui-
8cc	-vons
8b-	des
=25	=25
4.cc	lan-
8cc	-des
8b-	tout
8a-	en
=26	=26
(4g	fleur,
8b-)}	|}
{8b-	{Le
8b-	gra-
8b-	-ci-
=27	=27
(4b-	-eux
8ee-)	|
8ee-	sen-
8ddn	-tier
8cc	sau-
=28	=28
(2ddn	-va-
4ff	|
=29	=29
4ee)}	-ge,}
4r	.
{[4ee	{viens!
=30	=30
2.ee_	|
=31	=31
2ee_	|
4ee_	|
=32	=32
4.ee}]	|}
4.r	.
!! first melody repeats again
=36	=36
4r	.
8r	.
8r	.
{(8b-	{A
8a-)	|
=37	=37
2b-	l’om-
8a-	-bre
8g	des
=38	=38
2a-	pins
8g	du
8f	ri-
=39	=39
(4e-	-va-
4cc	|
4b-)	|
=40	=40
4a-}	-ge,}
8r	.
{8cc	{Al-
8b-	-lons
8a-	a\
=41	=41
[(2.ee-	l’om-
=42	=42
4.ee-]	|
8a-)	|
8b-	-bre
8e-	des
=43	=43
2a-	pins
(8b-	du
8dd-	ri-
=44	=44
2cc	-va-
4b-	|
=45	=45
2a-)}	-ge}
{8b-	{du
8ff	ri-
=46	=46
[(2.ee-	-va-
=47	=47
2ee-]	|
4cc	|
=48	=48
2a-)}	-ge.}
4r	.
*-	*-
